SF_Symbols/location.slash.svg

<?xml version="1.0" encoding="UTF-8"?>
<svg xmlns="http://www.w3.org/2000/svg" xmlns:xlink="http://www.w3.org/1999/xlink" width="24" height="24" viewBox="0 0 24 24" version="1.1">
<g id="surface1">
<path style=" stroke:none;fill-rule:nonzero;fill:rgb(100%,100%,100%);fill-opacity:1;" d="M 1.664062 13.359375 L 10.207031 13.394531 C 10.277344 13.394531 10.324219 13.40625 10.347656 13.429688 C 10.371094 13.453125 10.382812 13.5 10.382812 13.570312 L 10.40625 22.042969 C 10.40625 22.410156 10.484375 22.714844 10.640625 22.957031 C 10.796875 23.207031 10.996094 23.386719 11.238281 23.496094 C 11.480469 23.605469 11.738281 23.644531 12.011719 23.613281 C 12.292969 23.589844 12.554688 23.484375 12.796875 23.296875 C 13.046875 23.117188 13.25 22.859375 13.40625 22.523438 L 15.726562 17.542969 L 14.34375 16.160156 L 12.257812 20.660156 C 12.25 20.683594 12.238281 20.695312 12.222656 20.695312 C 12.207031 20.6875 12.199219 20.671875 12.199219 20.648438 L 12.246094 14.050781 L 9.679688 11.496094 L 3.09375 11.53125 C 3.070312 11.53125 3.054688 11.523438 3.046875 11.507812 C 3.046875 11.492188 3.0625 11.476562 3.09375 11.460938 L 7.582031 9.410156 L 6.210938 8.027344 L 1.054688 10.429688 C 0.726562 10.578125 0.480469 10.773438 0.316406 11.015625 C 0.160156 11.257812 0.0742188 11.511719 0.0585938 11.777344 C 0.0429688 12.042969 0.09375 12.296875 0.210938 12.539062 C 0.335938 12.773438 0.519531 12.96875 0.761719 13.125 C 1.011719 13.273438 1.3125 13.351562 1.664062 13.359375 Z M 17.777344 13.113281 L 22.066406 3.902344 C 22.261719 3.472656 22.335938 3.082031 22.289062 2.730469 C 22.242188 2.378906 22.101562 2.09375 21.867188 1.875 C 21.632812 1.65625 21.332031 1.53125 20.964844 1.5 C 20.605469 1.460938 20.210938 1.542969 19.78125 1.746094 L 10.617188 6 L 12.023438 7.382812 L 19.933594 3.75 C 19.972656 3.734375 20 3.734375 20.015625 3.75 C 20.03125 3.757812 20.03125 3.785156 20.015625 3.832031 L 16.371094 11.71875 Z M 21.023438 20.929688 C 21.195312 21.101562 21.40625 21.1875 21.65625 21.1875 C 21.914062 21.1875 22.128906 21.101562 22.300781 20.929688 C 22.464844 20.75 22.546875 20.539062 22.546875 20.296875 C 22.554688 20.046875 22.472656 19.832031 22.300781 19.652344 L 4.253906 1.605469 C 4.082031 1.433594 3.867188 1.347656 3.609375 1.347656 C 3.359375 1.339844 3.144531 1.425781 2.964844 1.605469 C 2.792969 1.777344 2.707031 1.992188 2.707031 2.25 C 2.707031 2.5 2.792969 2.710938 2.964844 2.882812 Z M 21.023438 20.929688 "/>
</g>
</svg>

<svg xmlns="http://www.w3.org/2000/svg" width="24" height="24"><path style="stroke:none;fill-rule:nonzero;fill:#fff;fill-opacity:1" d="m1.664 13.36 8.543.035c.07 0 .117.011.14.035.024.023.036.07.036.14l.023 8.473c0 .367.078.672.235.914.156.25.355.43.597.54.242.108.5.148.774.116.281-.023.543-.129.785-.316.25-.18.453-.438.61-.774l2.32-4.98-1.383-1.383-2.086 4.5c-.008.024-.02.035-.035.035-.016-.008-.024-.023-.024-.047l.047-6.597-2.566-2.555-6.586.035c-.024 0-.04-.008-.047-.023 0-.016.015-.031.047-.047l4.488-2.05-1.371-1.384-5.156 2.403c-.328.148-.575.343-.739.586a1.557 1.557 0 0 0-.257.761c-.016.266.035.52.152.762.125.234.309.43.55.586.25.148.551.227.903.234Zm16.113-.247 4.29-9.21c.195-.43.269-.821.222-1.173a1.378 1.378 0 0 0-.422-.855c-.234-.219-.535-.344-.902-.375-.36-.04-.754.043-1.184.246L10.617 6l1.406 1.383 7.91-3.633c.04-.016.067-.016.083 0 .015.008.015.035 0 .082l-3.645 7.887Zm3.246 7.817a.852.852 0 0 0 .633.258.863.863 0 0 0 .645-.258.908.908 0 0 0 .246-.633.864.864 0 0 0-.246-.645L4.254 1.605a.869.869 0 0 0-.645-.257.834.834 0 0 0-.644.257.863.863 0 0 0-.258.645c0 .25.086.46.258.633Zm0 0"/></svg>
